X:35
T:Alterations. JJo8.035
%%VWML:JohnsonVol8-2184-p18-0
F:http://www.vwml.org/record/JohnsonVol8/2184/p18
Z:Transcribed by Simon Furey and Lewis Jones
Z:vmp.Simon Wilson 2013 www.village-music-project.org.uk
Z:Dance added by John Chambers 2017
M:2/4
L:1/8
%Q:1/2=80
K:A
|:\
A/B/c/d/ ea | e2cA | d2fd | B2GE |\
AGFE | F/G/A2B | (cA)(dc) | "^tr"c2B2 :|
|:\
B/A/B/c/ Bc | def2 | FGA2 | dBc2 |\
A/B/c/d/ ea | (ge)(af) | (ed)(cB) | A2A2 :|
W: First Man set to the 2d Wo. the Man
W:cast down, the Wo. up .| set again the Wo.
W:cast down and the Man up :| Right hands
W:across round with the 2d Cu. :||. Left
W:hands back again :||: Cross over two
W:Cu. .| Lead up to the top and cast off :|
W:hands 4 round at Bottom :||. Right
W:hands and Left at top :||:
W:
T:Walton Bridge. JJo8.036
B:J.Johnson Choice Collection Vol 8 1758
Z:vmp.Simon Wilson 2013 www.village-music-project.org.uk
Z:Dance added by John Chambers 2017
M:C|
L:1/8
%Q:1/2=80
K:A
|: e |\
c/c/c ec acec | B/B/B fB bBfB |\
c/c/c ec acec | B>cdcc2B :|
|: B |\
E/E/E GE BE dB | A/A/A cA ec ae |\
f/f/f af egaf | edcB"^tr"B2A :|
W: Cast off two Cu. cast up two
W:Cu. Cross over half figure.
W:Right and left at top | foot
W:it Corners and turn Lead out
W:Sides and turn your Partner
W:
